dist/images/faq.svg

<svg width="64" height="64" viewBox="0 0 64 64" fill="none" xmlns="http://www.w3.org/2000/svg">
<path d="M44.0725 33.4746C44.0718 33.473 44.071 33.4719 44.0703 33.4702C43.9502 33.2147 43.7437 32.9982 43.4678 32.8696C42.8423 32.5779 42.0984 32.8485 41.8067 33.4744L34.171 49.8518C33.8794 50.4775 34.1502 51.2211 34.7758 51.5129C34.9467 51.5926 35.1263 51.6301 35.3032 51.6301C35.7739 51.6301 36.2249 51.3629 36.4369 50.9081L38.8213 45.794H47.0557L49.4388 50.9079C49.6508 51.3629 50.1018 51.6301 50.5725 51.6301C50.7494 51.6301 50.9289 51.5925 51.0998 51.5129C51.7255 51.2213 51.9964 50.4776 51.7048 49.8519L44.0725 33.4746ZM39.9868 43.294L42.9393 36.9612L45.8904 43.294H39.9868Z" fill="#0094FF"/>
<path d="M63.9394 61.618L60.503 50.9695C62.2641 47.4419 62.9291 43.3719 62.3768 39.4459C61.7798 35.2017 59.8583 31.3522 56.8201 28.3138C52.5075 24.0012 46.5331 21.9724 40.5481 22.7101C41.0154 18.8008 40.319 14.9043 38.5202 11.4056C38.2046 10.7916 37.4511 10.5496 36.837 10.8655C36.223 11.1811 35.9813 11.9347 36.2969 12.5487C39.7125 19.1927 38.4556 27.2086 33.1693 32.4949C27.878 37.7864 19.577 39.0194 12.9828 35.4939C12.6837 35.334 12.3324 35.3027 12.0098 35.4065L3.18819 38.2508L6.03243 29.4289C6.13656 29.1062 6.10493 28.7551 5.94506 28.4561C2.41944 21.8617 3.65269 13.5605 8.94368 8.26922C14.2384 2.97748 22.2577 1.72311 28.899 5.1476C29.5126 5.46398 30.2665 5.2231 30.5829 4.60948C30.8993 3.99598 30.6584 3.2421 30.0448 2.92561C26.3764 1.03411 22.2679 0.356235 18.1639 0.965109C13.978 1.58623 10.1787 3.50035 7.17618 6.5011C4.13844 9.53909 2.21744 13.3885 1.62082 17.6333C1.06907 21.5584 1.73394 25.6288 3.49356 29.1568L0.0603213 39.8057C-0.0835534 40.252 0.0344464 40.7414 0.366196 41.0732C0.60432 41.3113 0.923695 41.4393 1.25019 41.4393C1.37844 41.4393 1.50782 41.4195 1.63369 41.379L12.2822 37.9457C15.7038 39.6524 19.6355 40.329 23.4502 39.8649C22.7354 45.8321 24.7676 51.7836 29.0629 56.0756C32.1008 59.1135 35.9496 61.0346 40.1934 61.6311C44.118 62.1831 48.1882 61.5182 51.7177 59.7584L62.3663 63.1917C62.4922 63.2322 62.6216 63.252 62.7498 63.252C63.0763 63.252 63.3958 63.124 63.6339 62.8857C63.9654 62.5539 64.0836 62.0644 63.9394 61.618ZM51.99 57.2192C51.6672 57.1154 51.3161 57.1466 51.0172 57.3065C44.317 60.8872 36.2046 59.682 30.8301 54.3073C26.8926 50.3729 25.136 44.8396 26.0469 39.3703C29.4035 38.4964 32.4438 36.756 34.937 34.2627C37.4442 31.7553 39.1925 28.6906 40.062 25.3086C45.5462 24.3756 51.0995 26.1287 55.0522 30.0816C60.3457 35.3753 61.5789 43.6763 58.0513 50.2681C57.8912 50.5675 57.8596 50.9189 57.9638 51.2419L60.8107 60.0631L51.99 57.2192Z" fill="#0094FF"/>
<path d="M29.9438 19.5367C29.9438 14.1732 25.5819 9.80969 20.2205 9.80969C14.8572 9.80969 10.4937 14.1732 10.4937 19.5367C10.4937 24.8983 14.8572 29.2602 20.2205 29.2602C22.4502 29.2602 24.5053 28.5041 26.1474 27.2372L29.3249 30.4148C29.569 30.6588 29.8889 30.7809 30.2088 30.7809C30.5287 30.7809 30.8487 30.6588 31.0927 30.4148C31.5808 29.9267 31.5809 29.1352 31.0927 28.6469L27.9158 25.4701C29.1855 23.8269 29.9438 21.7692 29.9438 19.5367ZM26.1294 23.6837L23.1912 20.7454C22.703 20.2576 21.9115 20.2574 21.4234 20.7454C20.9353 21.2336 20.9352 22.0251 21.4234 22.5133L24.3607 25.4507C23.1873 26.2747 21.7599 26.7603 20.2204 26.7603C16.2355 26.7603 12.9935 23.5198 12.9935 19.5368C12.9935 15.5518 16.2355 12.3098 20.2204 12.3098C24.2033 12.3098 27.4437 15.5519 27.4437 19.5368C27.4438 21.0792 26.9562 22.5091 26.1294 23.6837Z" fill="#0094FF"/>
<path d="M34.0737 8.43727C34.3901 8.43727 34.7067 8.3179 34.9501 8.07852C35.4423 7.59452 35.4489 6.80315 34.9649 6.31077L34.9613 6.30715C34.4772 5.81515 33.6878 5.81002 33.1954 6.29415C32.7032 6.77815 32.6983 7.5714 33.1824 8.06365C33.427 8.31252 33.7503 8.43727 34.0737 8.43727Z" fill="#0094FF"/>
</svg>

<svg width="64" height="64" fill="none" xmlns="http://www.w3.org/2000/svg"><path d="M44.072 33.475l-.002-.005a1.25 1.25 0 00-2.264.004l-7.635 16.378a1.25 1.25 0 002.266 1.056l2.384-5.114h8.235l2.383 5.114a1.25 1.25 0 102.266-1.056l-7.633-16.377zm-4.085 9.819l2.952-6.333 2.951 6.333h-5.903z" fill="#0094FF"/><path d="M63.94 61.618l-3.437-10.649a19.796 19.796 0 001.874-11.523 19.462 19.462 0 00-5.557-11.132 19.556 19.556 0 00-16.272-5.604 19.52 19.52 0 00-2.028-11.304 1.25 1.25 0 10-2.223 1.143 17.08 17.08 0 01-3.128 19.946c-5.291 5.291-13.592 6.524-20.186 2.999a1.25 1.25 0 00-.973-.087L3.188 38.25l2.844-8.822a1.25 1.25 0 00-.087-.973C2.42 21.862 3.653 13.56 8.944 8.27c5.294-5.292 13.314-6.546 19.955-3.121a1.25 1.25 0 001.146-2.222A19.52 19.52 0 0018.164.966 19.485 19.485 0 007.176 6.5a19.458 19.458 0 00-5.555 11.132 19.813 19.813 0 001.873 11.524L.06 39.806a1.25 1.25 0 001.574 1.573l10.648-3.433a19.816 19.816 0 0011.168 1.919 19.56 19.56 0 005.613 16.21 19.455 19.455 0 0011.13 5.556 19.815 19.815 0 0011.525-1.873l10.648 3.434a1.252 1.252 0 001.268-.306 1.25 1.25 0 00.305-1.268zm-11.95-4.399a1.25 1.25 0 00-.973.087c-6.7 3.581-14.812 2.376-20.187-2.999a17.077 17.077 0 01-4.783-14.937 19.447 19.447 0 008.89-5.107 19.466 19.466 0 005.125-8.954 17.072 17.072 0 0114.99 4.773c5.294 5.293 6.527 13.594 3 20.186-.16.3-.192.65-.088.974l2.847 8.821-8.821-2.844z" fill="#0094FF"/><path d="M29.944 19.537c0-5.364-4.362-9.727-9.723-9.727-5.364 0-9.727 4.363-9.727 9.727 0 5.361 4.363 9.723 9.727 9.723 2.23 0 4.284-.756 5.926-2.023l3.178 3.178a1.246 1.246 0 001.768 0 1.25 1.25 0 000-1.768l-3.177-3.177a9.673 9.673 0 002.028-5.933zm-3.815 4.147l-2.938-2.939a1.25 1.25 0 00-1.768 1.768l2.938 2.938a7.181 7.181 0 01-4.14 1.31c-3.986 0-7.228-3.241-7.228-7.224 0-3.985 3.242-7.227 7.227-7.227 3.983 0 7.224 3.242 7.224 7.227a7.18 7.18 0 01-1.315 4.147zm7.945-15.247a1.25 1.25 0 00.891-2.127l-.004-.003a1.248 1.248 0 00-1.766-.013 1.252 1.252 0 00.879 2.143z" fill="#0094FF"/></svg>
